X: 4
T: Waterman's
R: jig
M: 6/8
L: 1/8
K: Emin
M: 7/8
E2Bz BAG|A2GA B2E|GAA2 AGA|Bc BG AGF|
E2Bz BAG|A2GA B2E|GAA2 ABG|AB GF E2 |1D:|2B|
gz!roll!g2 efg|f2 Bz BAB|!slide!c2Az ABG|AB cd eaf|
g2ez efg|f2 Bz BAB|!slide!c2Az ABG|AB GF EzB|
gz!roll!g2 efg|az gf efd|!slide!b2 ag fga|gz fe fdB|
g2ez efg|f2 Bz BAB|!slide!c2A2 ABG|AB GF E3|


Tune 3367	Setting 3367

